X: 21103
T: Kangaroo, The
R: polka
M: 2/4
K: Bminor
|:B>A Fd|Bc BA|FE/D/ AF|E3 F/A/|
B>c BA|Fd cd|FA FD|1 B,3 B,:|2 B,3 E||
ef/e/ dB|Ad fd|gf/e/ dB/f/|e4|
ef/e/ dB|Ad cd|FA FD|B,3 E|
ef/e/ dB|Ad fa|b3 c'|ba f/e/d|
ef/e/ dB|Ad cd|FA FD|B,3 z||

